X: 76
T:La Grande Chaine
% Nottingham Music Database
S:Trad French Canadian, via EF
M:4/4
L:1/4
K:G
D/2G/2|"G"B2 B/2A/2G/2B/2|"G"dd B/2G/2B/2d/2|"Am"c/2d/2c/2B/2 "D7"A/2D/2F/2A/2\
|"G"d/2e/2d/2c/2 "D7"B/2D/2G/2A/2|
"G"BB B/2A/2G/2A/2|"Em"dd B/2G/2B/2d/2|"Am"c/2d/2c/2B/2 "D7"A/2D/2F/2A/2|\
"G"G3/2A/2 G:|
B/2d/2|"C"gg/2f/2 e/2f/2g/2e/2|"G"dd B/2G/2B/2d/2|\
"Am"c/2d/2c/2B/2 "D7"A/2D/2F/2A/2|"G"d/2e/2d/2c/2 "G7"B/2G/2B/2d/2|
"C"gg/2f/2 e/2f/2g/2e/2|"Em"dd B/2G/2B/2d/2|"Am"c/2d/2c/2B/2 "D7"A/2D/2F/2A/2|\
"G"G3/2A/2 G:|<end>
<start>
